.icons/tmux.svg

<?xml version="1.0" encoding="UTF-8" standalone="no"?>
<svg width="608px" height="160px" viewBox="0 0 608 160" version="1.1" xmlns="http://www.w3.org/2000/svg" xmlns:xlink="http://www.w3.org/1999/xlink" xmlns:sketch="http://www.bohemiancoding.com/sketch/ns">
    <!-- Generator: Sketch 3.3.1 (12005) - http://www.bohemiancoding.com/sketch -->
    <title>logomark + wordmark</title>
    <desc>Created with Sketch.</desc>
    <defs></defs>
    <g id="Page-1" stroke="none" stroke-width="1" fill="none" fill-rule="evenodd" sketch:type="MSPage">
        <g id="logomark-+-wordmark" sketch:type="MSLayerGroup">
            <g id="logomark" sketch:type="MSShapeGroup">
                <g id="status-bar" fill="#1BB91F">
                    <path d="M0,116 L160,116 L160,144.996128 C160,153.282538 153.278035,160 145.001535,160 L14.9984654,160 C6.71504169,160 0,153.293415 0,144.996128 L0,116 Z M0,116 L160,116 L160,146 L0,146 L0,116 Z" id="Rectangle-5"></path>
                </g>
                <path d="M83,70 L83,0 L77,0 L77,146 L83,146 L83,76 L160,76 L160,70 L83,70 Z M0,15.0064867 C0,6.71863293 6.72196489,0 14.9984654,0 L145.001535,0 C153.284958,0 160,6.72491953 160,15.0064867 L160,146 L0,146 L0,15.0064867 Z" id="screen" fill="#3C3C3C"></path>
            </g>
            <path d="M241.77284,147.834568 C230.854266,147.834568 222.637888,144.967107 217.123457,139.232099 C211.609026,133.497091 208.851852,125.004995 208.851852,113.755556 L208.851852,61.9753086 L189,61.9753086 L189,47.0864198 L208.851852,47.0864198 L208.851852,14 L225.395062,14 L225.395062,47.0864198 L261.790123,47.0864198 L261.790123,61.9753086 L225.395062,61.9753086 L225.395062,113.920988 C225.395062,120.428016 226.994223,125.197927 230.192593,128.230864 C233.390962,131.263801 237.581867,132.780247 242.765432,132.780247 C245.191782,132.780247 247.893812,132.50453 250.871605,131.953086 C253.849398,131.401643 256.882289,130.574491 259.97037,129.471605 L263.279012,144.02963 C259.529199,145.353093 255.862158,146.318104 252.277778,146.924691 C248.693398,147.531279 245.191787,147.834568 241.77284,147.834568 L241.77284,147.834568 Z M294.702404,146.345679 L278.159194,146.345679 L278.159194,47.0864198 L294.702404,47.0864198 L294.702404,63.6296296 C294.702404,63.6296296 304.766165,53.7037202 309.674009,50.3950617 C314.581852,47.0864032 320.344346,45.4320988 326.961663,45.4320988 C332.80696,45.4320988 337.797445,47.0588315 341.933268,50.3123457 C346.069091,53.5658599 349.019267,58.0049101 350.783885,63.6296296 C350.783885,63.6296296 361.922955,53.7037202 366.996231,50.3950617 C372.069507,47.0864032 378.080147,45.4320988 385.02833,45.4320988 C392.748533,45.4320988 398.924603,48.2719881 403.556725,53.9518519 C408.188847,59.6317156 410.504873,67.2690878 410.504873,76.8641975 L410.504873,146.345679 L393.961663,146.345679 L393.961663,79.5111111 C393.961663,72.8937941 392.693363,68.1790264 390.156725,65.3666667 C387.620087,62.5543069 383.980617,61.1481481 379.238206,61.1481481 C374.495796,61.1481481 369.781028,62.5818787 365.093762,65.4493827 C360.406496,68.3168868 356.243163,72.121787 352.603638,76.8641975 L352.603638,146.345679 L336.060428,146.345679 L336.060428,79.5111111 C336.060428,72.8937941 334.792128,68.1790264 332.25549,65.3666667 C329.718852,62.5543069 326.079382,61.1481481 321.336972,61.1481481 C316.594561,61.1481481 311.879793,62.5818787 307.192527,65.4493827 C302.505261,68.3168868 298.341928,72.121787 294.702404,76.8641975 L294.702404,146.345679 Z M438.950487,138.735802 C433.10519,132.55964 430.182585,124.343261 430.182585,114.08642 L430.182585,47.0864198 L446.725795,47.0864198 L446.725795,110.777778 C446.725795,117.836249 448.3801,123.185167 451.688758,126.824691 C454.997417,130.464216 459.850043,132.283951 466.246783,132.283951 C471.320059,132.283951 476.365688,130.822648 481.38382,127.9 C486.401952,124.977352 491.392437,120.648588 496.355425,114.91358 L496.355425,47.0864198 L512.898635,47.0864198 L512.898635,146.345679 L496.355425,146.345679 L496.355425,129.802469 C496.355425,129.802469 485.13364,139.728379 479.894931,143.037037 C474.656222,146.345696 468.783441,148 462.276412,148 C452.571014,148 444.795783,144.911965 438.950487,138.735802 Z M588.657829,146.345679 L564.504742,108.958025 L541.840545,146.345679 L523.477582,146.345679 L556.564001,96.5506173 L524.635606,47.0864198 L543.164001,47.0864198 L566.159063,82.8197531 L589.484989,47.0864198 L607.847952,47.0864198 L574.430668,95.5580247 L607.186224,146.345679 L588.657829,146.345679 Z" id="wordmark" fill="#1BB91F" sketch:type="MSShapeGroup"></path>
        </g>
    </g>
</svg>

<svg fill="none" height="2500" width="2500" xmlns="http://www.w3.org/2000/svg" viewBox="0 0 160 160"><g clip-rule="evenodd" fill-rule="evenodd"><path d="M0 116h160v28.996c0 8.287-6.722 15.004-14.998 15.004H14.998C6.716 160 0 153.293 0 144.996zm0 0h160v30H0z" fill="#1bb91f"/><path d="M83 70V0h-6v146h6V76h77v-6zM0 15.007C0 6.719 6.722 0 14.998 0h130.004C153.285 0 160 6.725 160 15.007V146H0z" fill="#3c3c3c"/></g></svg>
